Suru++-Ubuntu/actions/symbolic/color-profile.svg

<!-- Created with Inkscape (http://www.inkscape.org/) -->
<svg width="16" height="16" version="1.1" xmlns="http://www.w3.org/2000/svg">
 <g transform="translate(-31.97559,-220.36218)">
  <path transform="translate(31.97559,220.36218)" d="m8 0v5a3 3 0 0 1 0.0234375 0 3 3 0 0 1 3.0000005 3h4.976562a8 8 0 0 0-8-8z" style="fill:#bebebe;opacity:.8"/>
  <path transform="translate(31.97559,220.36218)" d="m8 0a8 8 0 0 0-8 8h5.0234375a3 3 0 0 1 2.9765625-3v-5z" style="fill:#bebebe;opacity:.4"/>
  <path transform="translate(31.97559,220.36218)" d="m0 8a8 8 0 0 0 8 8v-5.001953a3 3 0 0 1-2.9765625-2.998047h-5.0234375z" style="fill:#bebebe;opacity:.2"/>
  <path transform="translate(31.97559,220.36218)" d="m11.023438 8a3 3 0 0 1-3.0000005 3 3 3 0 0 1-0.0234375-0.001953v5.001953a8 8 0 0 0 8-8h-4.976562z" style="fill:#bebebe;opacity:.6"/>
  <circle cx="40" cy="228.3622" r="7.5152354" style="fill:none;stroke-linecap:round;stroke:#bebebe"/>
  <circle cx="40" cy="228.3622" r="4" style="fill:none"/>
  <circle cx="40" cy="228.3622" r="3" style="fill:none;stroke-linecap:round;stroke:#bebebe"/>
 </g>
</svg>

<?xml version="1.0" encoding="UTF-8" standalone="no"?>
<!-- Created with Inkscape (http://www.inkscape.org/) -->

<svg
   xmlns:dc="http://purl.org/dc/elements/1.1/"
   xmlns:cc="http://creativecommons.org/ns#"
   xmlns:rdf="http://www.w3.org/1999/02/22-rdf-syntax-ns#"
   xmlns:svg="http://www.w3.org/2000/svg"
   xmlns="http://www.w3.org/2000/svg"
   xmlns:sodipodi="http://sodipodi.sourceforge.net/DTD/sodipodi-0.dtd"
   xmlns:inkscape="http://www.inkscape.org/namespaces/inkscape"
   width="16"
   height="16"
   id="svg2"
   version="1.1"
   inkscape:version="0.91 r13725"
   sodipodi:docname="icc-profile.svg">
  <defs
     id="defs4">
    <linearGradient
       id="linearGradient3946">
      <stop
         id="stop3948"
         offset="0"
         style="stop-color:#000000;stop-opacity:0.74698794;" />
      <stop
         id="stop3950"
         offset="1"
         style="stop-color:#000000;stop-opacity:0.02409638;" />
    </linearGradient>
    <linearGradient
       id="linearGradient3830-9">
      <stop
         style="stop-color:#000000;stop-opacity:0.74698794;"
         offset="0"
         id="stop3832-7" />
      <stop
         style="stop-color:#000000;stop-opacity:0.02409638;"
         offset="1"
         id="stop3834-5" />
    </linearGradient>
    <linearGradient
       id="linearGradient3984">
      <stop
         style="stop-color:#f4deba;stop-opacity:1;"
         offset="0"
         id="stop3986" />
      <stop
         style="stop-color:#de9625;stop-opacity:0;"
         offset="1"
         id="stop3988" />
    </linearGradient>
  </defs>
  <sodipodi:namedview
     id="base"
     pagecolor="#555753"
     bordercolor="#666666"
     borderopacity="1.0"
     inkscape:pageopacity="1"
     inkscape:pageshadow="2"
     inkscape:zoom="15.471429"
     inkscape:cx="7.7208382"
     inkscape:cy="13.528323"
     inkscape:document-units="px"
     inkscape:current-layer="layer1"
     showgrid="true"
     inkscape:snap-grids="true"
     inkscape:window-width="1680"
     inkscape:window-height="984"
     inkscape:window-x="0"
     inkscape:window-y="27"
     inkscape:window-maximized="1"
     showborder="true"
     fit-margin-top="0"
     fit-margin-right="0"
     fit-margin-left="0"
     fit-margin-bottom="0"
     showguides="true"
     inkscape:guide-bbox="true">
    <inkscape:grid
       type="xygrid"
       id="grid7044"
       empspacing="8"
       visible="true"
       enabled="true"
       snapvisiblegridlinesonly="true"
       originx="-31.97559px"
       originy="-816.00002px" />
  </sodipodi:namedview>
  <metadata
     id="metadata7">
    <rdf:RDF>
      <cc:Work
         rdf:about="">
        <dc:format>image/svg+xml</dc:format>
        <dc:type
           rdf:resource="http://purl.org/dc/dcmitype/StillImage" />
        <dc:title></dc:title>
      </cc:Work>
    </rdf:RDF>
  </metadata>
  <g
     inkscape:label="Livello 1"
     inkscape:groupmode="layer"
     id="layer1"
     transform="translate(-31.97559,-220.36218)">
    <path
       style="opacity:0.8;fill:#bebebe;fill-opacity:1;stroke:none;stroke-width:26.45669365;stroke-linecap:round;stroke-linejoin:miter;stroke-miterlimit:4;stroke-dasharray:none;stroke-dashoffset:0;stroke-opacity:1"
       d="M 8 0 L 8 5 A 3 3 0 0 1 8.0234375 5 A 3 3 0 0 1 11.023438 8 L 16 8 A 8 8 0 0 0 8 0 z "
       transform="translate(31.97559,220.36218)"
       id="path4865" />
    <path
       style="opacity:0.4;fill:#bebebe;fill-opacity:1;stroke:none;stroke-width:26.45669365;stroke-linecap:round;stroke-linejoin:miter;stroke-miterlimit:4;stroke-dasharray:none;stroke-dashoffset:0;stroke-opacity:1"
       d="M 8 0 A 8 8 0 0 0 0 8 L 5.0234375 8 A 3 3 0 0 1 8 5 L 8 0 z "
       transform="translate(31.97559,220.36218)"
       id="path4876" />
    <path
       style="opacity:0.2;fill:#bebebe;fill-opacity:1;stroke:none;stroke-width:26.45669365;stroke-linecap:round;stroke-linejoin:miter;stroke-miterlimit:4;stroke-dasharray:none;stroke-dashoffset:0;stroke-opacity:1"
       d="M 0 8 A 8 8 0 0 0 8 16 L 8 10.998047 A 3 3 0 0 1 5.0234375 8 L 0 8 z "
       transform="translate(31.97559,220.36218)"
       id="path4878" />
    <path
       style="opacity:0.6;fill:#bebebe;fill-opacity:1;stroke:none;stroke-width:26.45669365;stroke-linecap:round;stroke-linejoin:miter;stroke-miterlimit:4;stroke-dasharray:none;stroke-dashoffset:0;stroke-opacity:1"
       d="M 11.023438 8 A 3 3 0 0 1 8.0234375 11 A 3 3 0 0 1 8 10.998047 L 8 16 A 8 8 0 0 0 16 8 L 11.023438 8 z "
       transform="translate(31.97559,220.36218)"
       id="path4880" />
    <circle
       style="opacity:1;fill:none;fill-opacity:1;stroke:#bebebe;stroke-width:1;stroke-linecap:round;stroke-linejoin:miter;stroke-miterlimit:4;stroke-dasharray:none;stroke-dashoffset:0;stroke-opacity:1"
       id="path4894"
       cx="40"
       cy="228.3622"
       r="7.5152354" />
    <circle
       style="opacity:1;fill:none;fill-opacity:1;stroke:none;stroke-width:1;stroke-linecap:round;stroke-linejoin:miter;stroke-miterlimit:4;stroke-dasharray:none;stroke-dashoffset:0;stroke-opacity:1"
       id="path4896"
       cx="40"
       cy="228.3622"
       r="4" />
    <circle
       style="opacity:1;fill:none;fill-opacity:1;stroke:#bebebe;stroke-width:1;stroke-linecap:round;stroke-linejoin:miter;stroke-miterlimit:4;stroke-dasharray:none;stroke-dashoffset:0;stroke-opacity:1"
       id="path4914"
       cx="40"
       cy="228.3622"
       r="3" />
  </g>
</svg>
